X:0
T:Whistle Daughter
F:http://vwml.org/record/CJS2/10/646
S:Lucy White of Hambridge, Somerset
Z:Transcribed by Alice Baillie, January 2014
M:6/8
L:1/8
K:Em
E2 B B2 A | B3 A2 B | G2 A F2 G | (E3 E2) F | 
w:Whis-tle daugh-ter whis-tle and you shall have a man_ O
G G G E2 F | G3 E F G | A2 A G2 A | (B3 B2) F | 
w:mo-ther I can-not whis-tle but I'll do the best I can_ O
G2 G G2 B | (d3 d2) e/2 e/2 | d2 c B2 G | (F3 F2) G/2 A/2 | 
w:mo-ther that may be_ But it's not the case with me_ For I'm
B2 B B B A | G2 F E E E | B,2 E E2 =D | (E2 E2) | | 
w:young & mer-ry and al-most wea-ry of my poor 'gin-i-ty_

